X:1
T:Mrs. Davidson’s Reel
M:C|
L:1/8
R:Reel
B:MacIntyre  –  Collection of Slow Airs, Reels & Strathspeys (1794, p. 27)
Z:AK/Fiddler’s Companion
K:F
B|{AB}c2 cf dfBd|caAc BGGB|{AB}c2 cf dfBd|cBGB AFFB|
{AB}c2 cf dfBd|caAc BGGB|{AB}c2 cf cfdf|{ef}g2 gb aff||
c|AF F/F/F AFcF|AF F/F/F GCCB|AF F/F/F Acdf|efgb affc|
AF F/F/F AFcF|AF F/F/F GCCB|AfcA GBGf|egcb aff||

